X: 1
T: A Tune for the Road
C:Sean Ryan
Q:180
L:1/8
M:C
R:reel
K:D
dF~F2 AFdF|AFDF EDB,D|~A,3B, DEFA|BFAF EDB,D|
dF~F2 AFdF|AFDF EDB,D|~A,3B, DEFA|BFAF DEFA:|
defd cdec|dcdB AGFA|GABG FGA2|gfed cdec|
defd cdec|dcdB AGFA|GABG FGAF|GECE D2D2:|

composer: Sean Ryan
